assets/images/about.svg

<?xml version="1.0" encoding="UTF-8" standalone="no"?>
<svg width="250px" height="120px" viewBox="0 0 250 120" version="1.1" xmlns="http://www.w3.org/2000/svg" xmlns:xlink="http://www.w3.org/1999/xlink">
    <defs>
        <linearGradient x1="0%" y1="4.89728009%" x2="95.7969854%" y2="87.381848%" id="linearGradient-1">
            <stop stop-color="#FFE500" offset="0%"></stop>
            <stop stop-color="#FF2175" offset="100%"></stop>
        </linearGradient>
    </defs>
    <g id="Page-1" stroke="none" stroke-width="1" fill="none" fill-rule="evenodd">
        <g id="Artboard-25-Copy">
            <path d="M68.504717,47.0312013 L68.504717,76.0767205 L79.0688215,51.9190264 L91.2923772,83.0677463 L108.921507,83.0677463 L108.753816,100.752849 L24.2507736,100.752849 L24.7911093,83.7180658 L40.1347916,83.7180658 L54.0948187,51.9190264 L65.2971698,76.4342337 L65.2971698,76.4342337 L65.2971698,40.3144623 L65.2971698,31.1345805 L82.3654555,24.877552 L82.3654555,29.5635437 L97.2576499,24.1042441 L91.7520468,35.5544034 L97.2576499,42.0360993 L79.3301887,48.6080913 L79.3301887,43.0627134 L68.504717,47.0312013 Z M-13,-19 L270,-19 L270,143 L-13,143 L-13,-19 Z" id="Rectangle-130" fill="url(#linearGradient-1)"></path>
            <path d="M140.544922,42.0527344 L138.416016,53 L135.535156,53 L137.664062,42.0527344 L133.699219,42.0527344 L134.128906,39.8261719 L144.939453,39.8261719 L144.509766,42.0527344 L140.544922,42.0527344 Z M150.75,53 L151.84375,47.3945312 L148.298828,47.3945312 L147.205078,53 L144.324219,53 L146.882812,39.8261719 L149.763672,39.8261719 L148.757812,45.0117188 L152.302734,45.0117188 L153.308594,39.8261719 L156.189453,39.8261719 L153.630859,53 L150.75,53 Z M156.316406,53 L158.875,39.8261719 L168.328125,39.8261719 L167.898438,42.0527344 L161.326172,42.0527344 L160.710938,45.2167969 L166.6875,45.2167969 L166.257812,47.4433594 L160.28125,47.4433594 L159.626953,50.7734375 L166.599609,50.7734375 L166.169922,53 L156.316406,53 Z M139.841797,76 L141.492188,67.5234375 C141.557292,67.1914046 141.671223,66.6982455 141.833984,66.0439453 C141.996746,65.3896452 142.123697,64.9029964 142.214844,64.5839844 C141.511715,66.3548266 141.052735,67.4648415 140.837891,67.9140625 L138.738281,72.484375 L136.609375,72.484375 L136.267578,67.9140625 C136.222005,67.2630176 136.189453,66.1530026 136.169922,64.5839844 C135.987629,66.0162832 135.844402,66.9960911 135.740234,67.5234375 L134.089844,76 L131.941406,76 L134.5,62.8261719 L137.888672,62.8261719 L138.259766,67.6992188 L138.279297,68.1582031 C138.279297,68.4381524 138.25,69.0371048 138.191406,69.9550781 C138.523439,68.9850212 138.800129,68.2363308 139.021484,67.7089844 L141.296875,62.8261719 L144.568359,62.8261719 L142.009766,76 L139.841797,76 Z M147.068359,62.8261719 L156.013672,62.8261719 L155.583984,65.0527344 L152.498047,65.0527344 L150.798828,73.7734375 L153.884766,73.7734375 L153.455078,76 L144.509766,76 L144.939453,73.7734375 L148.025391,73.7734375 L149.724609,65.0527344 L146.638672,65.0527344 L147.068359,62.8261719 Z M162.283203,76 L160.447266,66.1367188 L160.330078,67.484375 C160.21289,68.5520887 160.121745,69.2552066 160.056641,69.59375 L158.806641,76 L156.296875,76 L158.855469,62.8261719 L162.146484,62.8261719 L164.021484,72.953125 C164.138672,71.3971276 164.278645,70.2089885 164.441406,69.3886719 L165.710938,62.8261719 L168.220703,62.8261719 L165.662109,76 L162.283203,76 Z M171.072266,62.8261719 L180.017578,62.8261719 L179.587891,65.0527344 L176.501953,65.0527344 L174.802734,73.7734375 L177.888672,73.7734375 L177.458984,76 L168.513672,76 L168.943359,73.7734375 L172.029297,73.7734375 L173.728516,65.0527344 L170.642578,65.0527344 L171.072266,62.8261719 Z M184.910156,76.1953125 C183.380201,76.1953125 182.196944,75.8730501 181.360352,75.2285156 C180.523759,74.5839812 180.085938,73.6464905 180.046875,72.4160156 L182.908203,72.0546875 C182.940755,72.6666697 183.158852,73.1500633 183.5625,73.5048828 C183.966148,73.8597023 184.581376,74.0371094 185.408203,74.0371094 C186.052738,74.0371094 186.584959,73.9606127 187.004883,73.8076172 C187.424807,73.6546216 187.745442,73.420249 187.966797,73.1044922 C188.188152,72.7887354 188.298828,72.4420592 188.298828,72.0644531 C188.298828,71.3743455 187.667324,70.8632829 186.404297,70.53125 C184.952467,70.1601544 183.966148,69.8330092 183.445312,69.5498047 C182.924477,69.2666001 182.520835,68.9231791 182.234375,68.5195312 C181.947915,68.1158834 181.804688,67.6341174 181.804688,67.0742188 C181.804688,66.4947888 181.928384,65.9332709 182.175781,65.3896484 C182.423178,64.8460259 182.807289,64.3626323 183.328125,63.9394531 C183.848961,63.5162739 184.475582,63.1907563 185.208008,62.9628906 C185.940433,62.7350249 186.733069,62.6210938 187.585938,62.6210938 C189.044278,62.6210938 190.128252,62.9091768 190.837891,63.4853516 C191.54753,64.0615263 191.905599,64.9550721 191.912109,66.1660156 L189.060547,66.4492188 C189.008463,65.2578065 188.367194,64.6621094 187.136719,64.6621094 C186.609372,64.6621094 186.163413,64.7353508 185.798828,64.8818359 C185.434243,65.028321 185.157553,65.2447902 184.96875,65.53125 C184.779947,65.8177098 184.685547,66.1204411 184.685547,66.4394531 C184.685547,66.6998711 184.762044,66.9179679 184.915039,67.09375 C185.068035,67.2695321 185.276366,67.4208978 185.540039,67.5478516 C185.803712,67.6748053 186.348954,67.8489572 187.175781,68.0703125 C188.276047,68.3632827 189.091469,68.6595037 189.62207,68.9589844 C190.152672,69.258465 190.544921,69.6149068 190.798828,70.0283203 C191.052736,70.4417338 191.179688,70.9055964 191.179688,71.4199219 C191.179688,72.2793012 190.925784,73.0865848 190.417969,73.8417969 C189.910154,74.597009 189.182622,75.1780579 188.235352,75.5849609 C187.288081,75.991864 186.179694,76.1953125 184.910156,76.1953125 L184.910156,76.1953125 Z M200.554688,65.0527344 L198.425781,76 L195.544922,76 L197.673828,65.0527344 L193.708984,65.0527344 L194.138672,62.8261719 L204.949219,62.8261719 L204.519531,65.0527344 L200.554688,65.0527344 Z M204.324219,76 L206.882812,62.8261719 L216.335938,62.8261719 L215.90625,65.0527344 L209.333984,65.0527344 L208.71875,68.2167969 L214.695312,68.2167969 L214.265625,70.4433594 L208.289062,70.4433594 L207.634766,73.7734375 L214.607422,73.7734375 L214.177734,76 L204.324219,76 Z M223.728516,76 L221.873047,70.9707031 L220.183594,70.9707031 L219.207031,76 L216.326172,76 L218.884766,62.8261719 L223.708984,62.8261719 C225.206388,62.8261719 226.326168,63.0817032 227.068359,63.5927734 C227.810551,64.1038437 228.181641,64.8443962 228.181641,65.8144531 C228.181641,66.2701846 228.108399,66.7438126 227.961914,67.2353516 C227.815429,67.7268905 227.589194,68.1777323 227.283203,68.5878906 C226.977212,68.9980489 226.596356,69.3544907 226.140625,69.6572266 C225.684894,69.9599625 225.193362,70.182942 224.666016,70.3261719 L226.970703,76 L223.728516,76 Z M225.212891,66.4003906 C225.212891,65.9055965 225.019208,65.5589203 224.631836,65.3603516 C224.244464,65.1617829 223.692712,65.0625 222.976562,65.0625 L221.335938,65.0625 L220.623047,68.734375 L222.341797,68.734375 C223.98243,68.734375 224.923176,68.1061261 225.164062,66.8496094 L225.212891,66.4003906 Z M138.015625,94.3515625 L136.091797,94.3515625 L135.183594,99 L132.302734,99 L134.861328,85.8261719 L139.548828,85.8261719 C141.000658,85.8261719 142.102535,86.0930963 142.854492,86.6269531 C143.606449,87.16081 143.982422,87.9453073 143.982422,88.9804688 C143.982422,89.6705764 143.837567,90.3623012 143.547852,91.0556641 C143.258137,91.7490269 142.85775,92.3382137 142.34668,92.8232422 C141.835609,93.3082707 141.213871,93.6842435 140.481445,93.9511719 C139.74902,94.2181003 138.927088,94.3515625 138.015625,94.3515625 L138.015625,94.3515625 Z M141.023438,89.4980469 C141.023438,88.9837214 140.836265,88.6158865 140.461914,88.3945312 C140.087563,88.173176 139.532556,88.0625 138.796875,88.0625 L137.3125,88.0625 L136.521484,92.1347656 L138.083984,92.1347656 C139.737638,92.1347656 140.697915,91.4349028 140.964844,90.0351562 C141.003906,89.8398428 141.023438,89.6608081 141.023438,89.4980469 L141.023438,89.4980469 Z M151.716797,99 L149.861328,93.9707031 L148.171875,93.9707031 L147.195312,99 L144.314453,99 L146.873047,85.8261719 L151.697266,85.8261719 C153.194669,85.8261719 154.314449,86.0817032 155.056641,86.5927734 C155.798832,87.1038437 156.169922,87.8443962 156.169922,88.8144531 C156.169922,89.2701846 156.09668,89.7438126 155.950195,90.2353516 C155.80371,90.7268905 155.577475,91.1777323 155.271484,91.5878906 C154.965493,91.9980489 154.584638,92.3544907 154.128906,92.6572266 C153.673175,92.9599625 153.181643,93.182942 152.654297,93.3261719 L154.958984,99 L151.716797,99 Z M153.201172,89.4003906 C153.201172,88.9055965 153.007489,88.5589203 152.620117,88.3603516 C152.232745,88.1617829 151.680993,88.0625 150.964844,88.0625 L149.324219,88.0625 L148.611328,91.734375 L150.330078,91.734375 C151.970711,91.734375 152.911457,91.1061261 153.152344,89.8496094 L153.201172,89.4003906 Z M159.070312,85.8261719 L168.015625,85.8261719 L167.585938,88.0527344 L164.5,88.0527344 L162.800781,96.7734375 L165.886719,96.7734375 L165.457031,99 L156.511719,99 L156.941406,96.7734375 L160.027344,96.7734375 L161.726562,88.0527344 L158.640625,88.0527344 L159.070312,85.8261719 Z M175.847656,99 L177.498047,90.5234375 C177.563151,90.1914046 177.677083,89.6982455 177.839844,89.0439453 C178.002605,88.3896452 178.129557,87.9029964 178.220703,87.5839844 C177.517575,89.3548266 177.058595,90.4648415 176.84375,90.9140625 L174.744141,95.484375 L172.615234,95.484375 L172.273438,90.9140625 C172.227864,90.2630176 172.195313,89.1530026 172.175781,87.5839844 C171.993489,89.0162832 171.850261,89.9960911 171.746094,90.5234375 L170.095703,99 L167.947266,99 L170.505859,85.8261719 L173.894531,85.8261719 L174.265625,90.6992188 L174.285156,91.1582031 C174.285156,91.4381524 174.25586,92.0371048 174.197266,92.9550781 C174.529299,91.9850212 174.805988,91.2363308 175.027344,90.7089844 L177.302734,85.8261719 L180.574219,85.8261719 L178.015625,99 L175.847656,99 Z M180.320312,99 L182.878906,85.8261719 L192.332031,85.8261719 L191.902344,88.0527344 L185.330078,88.0527344 L184.714844,91.2167969 L190.691406,91.2167969 L190.261719,93.4433594 L184.285156,93.4433594 L183.630859,96.7734375 L190.603516,96.7734375 L190.173828,99 L180.320312,99 Z" id="THE" fill="#FFFFFF"></path>
        </g>
    </g>
</svg>

<svg width="250" height="120" viewBox="0 0 250 120" xmlns="http://www.w3.org/2000/svg"><g fill="none" fill-rule="evenodd"><path d="M68.505 47.03v29.047L79.07 51.92 91.29 83.067h17.63l-.168 17.685H24.25l.54-17.035h15.345l13.96-31.8 11.202 24.516v-45.3l17.068-6.256v4.686l14.893-5.46-5.506 11.45 5.506 6.482-17.928 6.572v-5.545L68.505 47.03zM-13-19h283v162H-13V-19z" fill="#A01BE7"/><path d="M140.545 42.053L138.415 53h-2.88l2.13-10.947h-3.966l.43-2.227h10.81l-.43 2.227h-3.965zM150.75 53l1.094-5.605H148.3L147.204 53h-2.88l2.558-13.174h2.88l-1.005 5.186h3.545l1.006-5.186h2.88L153.63 53h-2.88zm5.566 0l2.56-13.174h9.452l-.43 2.227h-6.572l-.615 3.164h5.977l-.43 2.226h-5.976l-.653 3.33h6.973L166.17 53h-9.854zm-16.474 23l1.65-8.477c.065-.332.18-.825.342-1.48.163-.653.29-1.14.38-1.46-.702 1.772-1.16 2.882-1.376 3.33l-2.1 4.57h-2.13l-.34-4.57c-.046-.65-.08-1.76-.098-3.33-.182 1.433-.326 2.413-.43 2.94L134.09 76h-2.15l2.56-13.174h3.39l.37 4.873.02.458c0 .28-.03.88-.09 1.797.333-.97.61-1.72.83-2.246l2.277-4.884h3.27L142.01 76h-2.168zm7.226-13.174h8.946l-.43 2.227h-3.086l-1.7 8.72h3.087l-.43 2.227h-8.945l.43-2.227h3.085l1.7-8.72h-3.086l.428-2.227zM162.283 76l-1.836-9.863-.117 1.347c-.117 1.068-.208 1.77-.273 2.11L158.807 76h-2.51l2.558-13.174h3.29l1.876 10.127c.12-1.556.26-2.744.42-3.564l1.27-6.564h2.51L165.663 76h-3.38zm8.79-13.174h8.945l-.43 2.227h-3.086l-1.7 8.72h3.087L177.46 76h-8.946l.43-2.227h3.085l1.7-8.72h-3.087l.43-2.227zm13.837 13.37c-1.53 0-2.713-.323-3.55-.967-.836-.646-1.274-1.584-1.313-2.814l2.86-.36c.034.61.252 1.094.655 1.45.404.354 1.02.53 1.846.53.645 0 1.177-.075 1.597-.228.42-.153.74-.388.962-.704.22-.315.332-.662.332-1.04 0-.69-.633-1.2-1.896-1.533-1.452-.37-2.438-.697-2.96-.98-.52-.283-.923-.627-1.21-1.03-.286-.404-.43-.886-.43-1.446 0-.58.124-1.14.372-1.684.247-.544.63-1.027 1.152-1.45.52-.424 1.148-.75 1.88-.977.732-.228 1.525-.342 2.378-.342 1.458 0 2.542.29 3.252.865.71.577 1.068 1.47 1.074 2.68l-2.85.284c-.054-1.192-.695-1.788-1.925-1.788-.528 0-.974.073-1.338.22-.366.146-.642.363-.83.65-.19.286-.284.588-.284.907 0 .26.076.478.23.654.152.176.36.327.624.454s.81.3 1.636.522c1.1.293 1.915.59 2.446.89.53.298.923.655 1.177 1.068.253.414.38.878.38 1.392 0 .86-.254 1.667-.762 2.422-.508.755-1.235 1.336-2.183 1.743-.947.407-2.055.61-3.325.61zm15.645-11.143L198.425 76h-2.88l2.13-10.947h-3.966l.43-2.227h10.81l-.43 2.227h-3.965zM204.325 76l2.558-13.174h9.453l-.43 2.227h-6.572l-.615 3.164h5.975l-.43 2.226h-5.976l-.655 3.33h6.972l-.43 2.227h-9.853zm19.404 0l-1.857-5.03h-1.69l-.976 5.03h-2.88l2.558-13.174h4.824c1.496 0 2.616.256 3.358.767.743.51 1.114 1.25 1.114 2.22 0 .457-.074.93-.22 1.422-.147.492-.373.943-.68 1.353-.305.41-.686.766-1.14 1.07-.457.302-.95.525-1.476.668L226.97 76h-3.24zm1.483-9.6c0-.494-.194-.84-.58-1.04-.39-.198-.94-.297-1.656-.297h-1.64l-.714 3.67h1.72c1.64 0 2.58-.627 2.82-1.883l.05-.45zm-87.197 27.952h-1.924L135.184 99h-2.88l2.557-13.174h4.69c1.45 0 2.553.267 3.304.8.752.535 1.128 1.32 1.128 2.354 0 .69-.144 1.382-.434 2.076-.29.693-.69 1.282-1.2 1.767-.512.485-1.134.86-1.867 1.128-.73.268-1.553.402-2.464.402zm3.007-4.854c0-.514-.187-.882-.56-1.103-.375-.222-.93-.332-1.666-.332h-1.484l-.792 4.072h1.564c1.654 0 2.614-.7 2.88-2.1.04-.195.06-.374.06-.537zM151.717 99l-1.856-5.03h-1.688l-.977 5.03h-2.88l2.558-13.174h4.824c1.498 0 2.617.256 3.36.767.742.51 1.113 1.25 1.113 2.22 0 .457-.073.93-.22 1.422-.146.492-.373.943-.68 1.353-.305.41-.685.766-1.14 1.07-.457.302-.948.525-1.476.668L154.96 99h-3.243zm1.484-9.6c0-.494-.193-.84-.58-1.04-.387-.198-.94-.297-1.655-.297h-1.64l-.714 3.67h1.72c1.64 0 2.58-.627 2.822-1.883l.05-.45zm5.87-3.574h8.946l-.43 2.227H164.5l-1.7 8.72h3.087l-.43 2.227h-8.945l.43-2.227h3.085l1.7-8.72h-3.086l.43-2.227zM175.848 99l1.65-8.477c.065-.332.18-.825.342-1.48.163-.653.29-1.14.38-1.46-.702 1.772-1.16 2.882-1.376 3.33l-2.1 4.57h-2.13l-.34-4.57c-.046-.65-.08-1.76-.098-3.33-.183 1.433-.326 2.413-.43 2.94L170.096 99h-2.15l2.56-13.174h3.39l.37 4.873.02.458c0 .28-.03.88-.09 1.797.333-.97.61-1.72.83-2.246l2.277-4.884h3.27L178.017 99h-2.168zm4.472 0l2.56-13.174h9.452l-.43 2.227h-6.572l-.615 3.164h5.976l-.428 2.226h-5.977l-.654 3.33h6.974l-.43 2.227h-9.854z" fill="#FFF"/></g></svg>
